img/icons/general/ticket.svg

<svg xmlns="http://www.w3.org/2000/svg" viewBox="0 0 48 32"><defs><style>.cls-1{fill:#231f20}</style></defs><g id="Layer_2" data-name="Layer 2"><g id="Icons"><g id="General"><g id="Ticket"><path class="cls-1" d="M47 10h1V0H0v10h1a6 6 0 010 12H0v10h48V22h-1a6 6 0 010-12zm-8 6a8 8 0 007 7.94V30H2v-6.06A8 8 0 002 8.06V2h44v6.06A8 8 0 0039 16z"/><path class="cls-1" d="M14 22h20V10H14zm2-10h16v8H16z"/></g></g></g></g></svg>

<svg xmlns="http://www.w3.org/2000/svg" viewBox="0 0 48 32"><defs><style>.cls-1{fill:#231f20;}</style></defs><title>Ticket</title><g id="Layer_2" data-name="Layer 2"><g id="Icons"><g id="General"><g id="Ticket"><path class="cls-1" d="M47,10h1V0H0V10H1A6,6,0,0,1,1,22H0V32H48V22H47a6,6,0,0,1,0-12Zm-8,6a8,8,0,0,0,7,7.94V30H2V23.94A8,8,0,0,0,2,8.06V2H46V8.06A8,8,0,0,0,39,16Z"/><path class="cls-1" d="M14,22H34V10H14Zm2-10H32v8H16Z"/></g></g></g></g></svg>
